icons/clock.svg

<svg xmlns="http://www.w3.org/2000/svg" width="24" height="24" viewBox="0 0 24 24">
  <path d="M12,1 C18.0751322,1 23,5.92486775 23,12 C23,18.0751322 18.0751322,23 12,23 C5.92486775,23 1,18.0751322 1,12 C1,5.92486775 5.92486775,1 12,1 Z M12,6 C11.4477153,6 11,6.44771525 11,7 L11,7 L11.0001861,12.0193545 C11.0006349,12.042681 11.001895,12.0659949 11.0039664,12.0892501 L11.0039664,12.0892501 L11.0067277,12.1166211 C11.0079861,12.1274549 11.0094175,12.1382359 11.0110178,12.1484669 C11.0136281,12.165949 11.0167022,12.1833753 11.0201652,12.2007941 C11.0246398,12.2227461 11.0298336,12.2444365 11.0358451,12.265993 C11.0400977,12.2814633 11.0447287,12.2968513 11.0495467,12.3117364 C11.0561225,12.3317977 11.0633157,12.3515792 11.0712255,12.371336 L11.0712255,12.371336 L11.0936538,12.4230991 C11.1033766,12.4438914 11.1137939,12.4642939 11.1246712,12.4840621 L11.1246712,12.4840621 L11.1460674,12.5206602 C11.1617187,12.546275 11.1784901,12.5711307 11.1963346,12.5953066 L11.1963346,12.5953066 L11.22,12.625 L11.2928932,12.7071068 L15.2928932,16.7071068 L15.3871006,16.7902954 C15.7793918,17.0953203 16.3466228,17.0675907 16.7071068,16.7071068 C17.0976311,16.3165825 17.0976311,15.6834175 16.7071068,15.2928932 L16.7071068,15.2928932 L13,11.585 L13,7 L12.9932723,6.88337887 C12.9355072,6.38604019 12.5128358,6 12,6 Z"/>
</svg>

<svg xmlns="http://www.w3.org/2000/svg" viewBox="0 0 24 24">
  <path d="M12 1a11 11 0 1 1 0 22 11 11 0 0 1 0-22zm0 5a1 1 0 0 0-1 1v5.02a1 1 0 0 0 0 .07v.03a.82.82 0 0 0 .05.2l.02.05.02.05.03.06.03.04.05.08.02.03.07.08 4 4 .1.08a1 1 0 0 0 1.32-1.5L13 11.6V6.88A1 1 0 0 0 12 6z"/>
</svg>
